X: 9119
T: Da Wattle O't
R: reel
M: 4/4
K: Dmajor
de|f2fd g2ge|f2fd faaf|gefd ecdB|AFDF Ad:|
|:dB|Addc d3f|edcd efg2|fedc d2AB|AFDF Ad:|

